X:1
T:Title
%%score { ( 1 3 ) | ( 2 4 ) }
L:1/8
M:4/4
K:Ab
V:1 treble nm="Grand Piano"
V:3 treble 
V:2 bass 
V:4 bass 
V:1
 z4 z[Q:1/4=96] [CE][CF][CA] | [CE]2 [CA]2 [CF]2 [CA]2 | G4 z G_G=G | E2 B2 F2 G2 | %4
[M:5/8] [CA]- [CA]3 z |[M:3/8] [CE][CF][CA] |[M:4/4] [CE]2 [CA]2 [CF]2 [CA]2 | G4 z G_G=G | %8
 [=DB]2 [DB]2 [DF]2 [Dc]2 |[M:5/8] B- B3 z |[M:3/8] ddc |[M:4/4] B6 z2 | c6 z2 | %13
 [=Ec]3 [CEG] [CFA][CFA][=DAB][DAc] |[M:5/8] [EGB]- [EGB]3 z |[M:3/8] EFG |[M:4/4] A6 z2 | %17
[M:17/16] d/-d/-d/-d/-d/-d/-d/-d-<d z/ z/ z/ z/ z |[M:5/4] A3 A A3 G3 |[M:5/8] [CEA]- [CEA]3 z |] %20
V:2
 z4 z [A,,A,][A,,A,][A,,A,] | [A,,A,]2 [A,,E,]2 [A,,A,]2 [A,,A,]2 | %2
 [E,B,D]4 z [E,B,D][E,=A,D][E,B,D] | [E,G,D]2 [E,G,D]2 [E,A,D]2 [E,B,D]2 | %4
[M:5/8] [A,,A,]- [A,,A,]3 z |[M:3/8] [A,,A,][A,,A,][A,,A,] | %6
[M:4/4] [A,,A,]2 [A,,E,]2 [A,,A,]2 [A,,A,]2 | [E,B,D]4 z [E,B,D][E,=A,D][E,B,D] | %8
 [B,,B,]2 [B,,F,]2 [B,,B,]2 [B,,A,]2 |[M:5/8] [E,G,E]- [E,G,E]3 z |[M:3/8][K:treble] BBA | %11
[M:4/4] G6[K:bass][K:treble] z2 | A6[K:bass] z2 | [C,G,]3 C, F,F,B,,B,, |[M:5/8] E,- E,3 z | %15
[M:3/8] E,F,G, |[M:4/4] z[K:treble] CDD .C2 G_G | %17
[M:17/16] F/-F/-F/-F/-F/-F/-F/-F-<F[K:bass] z/ z/ z/ z/ z | %18
[M:5/4] [=E,C=D]3 [E,CD] [_E,CE]3 [E,_DE]3 |[M:5/8] [A,,A,]- [A,,A,]3 z |] %20
V:3
 x8 | x8 | x8 | x8 |[M:5/8] x5 |[M:3/8] x3 |[M:4/4] x8 | x8 | x8 |[M:5/8] x5 |[M:3/8] x3 | %11
[M:4/4] z EEE Eeed | z EEE E2 [Ec]2 | x8 |[M:5/8] x5 |[M:3/8] x3 |[M:4/4] z EFF EABc | %17
[M:17/16] z A,A,A,A,3/2AAA |[M:5/4] x10 |[M:5/8] x5 |] %20
V:4
 x8 | x8 | x8 | x8 |[M:5/8] x5 |[M:3/8] x3 |[M:4/4] x8 | x8 | x8 |[M:5/8] x5 | %10
[M:3/8][K:treble] x3 |[M:4/4] z[K:bass] E,E,E, E,[K:treble]ccB | z A,[K:bass]A,A, A,2 [A,,A,]2 | %13
 x8 |[M:5/8] x5 |[M:3/8] x3 |[M:4/4] A,6[K:treble] z2 | %17
[M:17/16] z D,D,D,D,3/2[K:bass][F,A,D][F,A,D][F,A,D] |[M:5/4] x10 |[M:5/8] x5 |] %20

